X:5
T:The Brave Earl Brand and the King of England's Daughter
Z:Jack Campin, http://www.campin.me.uk/
S:Northumbrian Minstrelsy
M:C
L:1/8
K:G
G2 |A A A A G2 G G| A2   A2  G2
z2 |G2  B B d2 d d| e4       d2
z d|e e e e d2 d c|(BA) (AG) E2
G E|D4      G2 B2 | A4       G2|]

